assets/images/payment-methods/ideal.svg

<svg width="64" height="40" viewBox="0 0 64 40" fill="none" xmlns="http://www.w3.org/2000/svg">
<g clip-path="url(#clip-ideal)">
<path d="M60.3225 0H3.4223C1.54617 0 0.0252686 1.5209 0.0252686 3.39703V36.603C0.0252686 38.4791 1.54617 40 3.4223 40H60.3225C62.1986 40 63.7195 38.4791 63.7195 36.603V3.39703C63.7195 1.5209 62.1986 0 60.3225 0Z" fill="white"/>
<path d="M34.398 6C38.272 6.07 41.544 7.194 43.874 9.272C45.2188 10.4824 46.2595 11.9925 46.912 13.68C47.632 15.502 48 17.63 48 20C48 24.96 46.606 28.662 43.86 31.01C41.6 32.938 38.416 33.94 34.398 33.994V34H16V6H34.398ZM34.05 7.86H17.852V32.14H34.05C42.19 32.14 46.148 28.17 46.148 20C46.148 15.878 44.968 12.736 42.644 10.664C40.588 8.83 37.616 7.86 34.05 7.86ZM25.99 19.15V27.93H20.7V19.15H25.988H25.99ZM23.392 11.766C24.1861 11.766 24.9476 12.0814 25.5091 12.6429C26.0706 13.2044 26.386 13.9659 26.386 14.76C26.386 15.5541 26.0706 16.3156 25.5091 16.8771C24.9476 17.4386 24.1861 17.754 23.392 17.754C22.5979 17.754 21.8364 17.4386 21.2749 16.8771C20.7134 16.3156 20.398 15.5541 20.398 14.76C20.398 13.9659 20.7134 13.2044 21.2749 12.6429C21.8364 12.0814 22.5979 11.766 23.392 11.766Z" fill="black"/>
<path d="M33.796 28.1521H28.416V11.4801H33.796H33.576C38.064 11.4801 42.838 13.2541 42.838 19.8361C42.838 26.7941 38.064 28.1481 33.578 28.1481H33.796V28.1521Z" fill="#DB4093"/>
</g>
<defs>
<clipPath id="clip-ideal">
<rect width="63.6943" height="40" fill="white" transform="translate(0.0252686)"/>
</clipPath>
</defs>
</svg>

<svg xmlns="http://www.w3.org/2000/svg" width="64" height="40" fill="none"><g clip-path="url(#a)"><path fill="#fff" d="M60.322 0h-56.9A3.397 3.397 0 0 0 .025 3.397v33.206A3.397 3.397 0 0 0 3.422 40h56.9a3.397 3.397 0 0 0 3.397-3.397V3.397A3.397 3.397 0 0 0 60.322 0Z"/><path fill="#000" d="M34.398 6c3.874.07 7.146 1.194 9.476 3.272a11.52 11.52 0 0 1 3.038 4.408C47.632 15.502 48 17.63 48 20c0 4.96-1.394 8.662-4.14 11.01-2.26 1.928-5.444 2.93-9.462 2.984V34H16V6h18.398Zm-.348 1.86H17.852v24.28H34.05c8.14 0 12.098-3.97 12.098-12.14 0-4.122-1.18-7.264-3.504-9.336C40.588 8.83 37.616 7.86 34.05 7.86Zm-8.06 11.29v8.78H20.7v-8.78h5.29Zm-2.598-7.384a2.994 2.994 0 1 1 0 5.988 2.994 2.994 0 0 1 0-5.988Z"/><path fill="#DB4093" d="M33.796 28.152h-5.38V11.48h5.38-.22c4.488 0 9.262 1.774 9.262 8.356 0 6.958-4.774 8.312-9.26 8.312h.218v.004Z"/></g><defs><clipPath id="a"><path fill="#fff" d="M.025 0H63.72v40H.025z"/></clipPath></defs></svg>
